public/editor-src/editor/icons/fa/bath.svg

<svg xmlns="http://www.w3.org/2000/svg" viewBox="0 0 512 512"><path d="M32 384a95.4 95.4 0 0 0 32 71.09V496a16 16 0 0 0 16 16h32a16 16 0 0 0 16-16v-16h256v16a16 16 0 0 0 16 16h32a16 16 0 0 0 16-16v-40.91A95.4 95.4 0 0 0 480 384v-48H32Zm464-128H80V69.25a21.26 21.26 0 0 1 36.28-15l19.27 19.26c-13.13 29.88-7.61 59.11 8.62 79.73l-.17.17a16 16 0 0 0 0 22.59l11.31 11.31a16 16 0 0 0 22.63 0L283.31 81.94a16 16 0 0 0 0-22.63L272 48a16 16 0 0 0-22.62 0l-.17.17c-20.62-16.23-49.83-21.75-79.73-8.62l-19.26-19.27A69.25 69.25 0 0 0 32 69.25V256H16a16 16 0 0 0-16 16v16a16 16 0 0 0 16 16h480a16 16 0 0 0 16-16v-16a16 16 0 0 0-16-16Z"/></svg>

<svg xmlns="http://www.w3.org/2000/svg" viewBox="0 0 512 512"><path d="M32,384a95.4,95.4,0,0,0,32,71.09V496a16,16,0,0,0,16,16h32a16,16,0,0,0,16-16V480H384v16a16,16,0,0,0,16,16h32a16,16,0,0,0,16-16V455.09A95.4,95.4,0,0,0,480,384V336H32ZM496,256H80V69.25a21.26,21.26,0,0,1,36.28-15l19.27,19.26c-13.13,29.88-7.61,59.11,8.62,79.73l-.17.17A16,16,0,0,0,144,176l11.31,11.31a16,16,0,0,0,22.63,0L283.31,81.94a16,16,0,0,0,0-22.63L272,48a16,16,0,0,0-22.62,0l-.17.17c-20.62-16.23-49.83-21.75-79.73-8.62L150.22,20.28A69.25,69.25,0,0,0,32,69.25V256H16A16,16,0,0,0,0,272v16a16,16,0,0,0,16,16H496a16,16,0,0,0,16-16V272A16,16,0,0,0,496,256Z"/></svg>
